assets/img/logo/logo_nextcloud_blue.svg

<?xml version="1.0" encoding="UTF-8" standalone="no"?>
<svg width="96px" height="64px" viewBox="0 0 96 64" version="1.1" xmlns="http://www.w3.org/2000/svg" xmlns:xlink="http://www.w3.org/1999/xlink">
    <!-- Generator: Sketch 39.1 (31720) - http://www.bohemiancoding.com/sketch -->
    <title>Page 1</title>
    <desc>Created with Sketch.</desc>
    <defs>
        <filter x="-50%" y="-50%" width="200%" height="200%" filterUnits="objectBoundingBox" id="filter-1">
            <feOffset dx="0" dy="1" in="SourceAlpha" result="shadowOffsetOuter1"></feOffset>
            <feGaussianBlur stdDeviation="1" in="shadowOffsetOuter1" result="shadowBlurOuter1"></feGaussianBlur>
            <feColorMatrix values="0 0 0 0 0   0 0 0 0 0   0 0 0 0 0  0 0 0 0.0907495471 0" type="matrix" in="shadowBlurOuter1" result="shadowMatrixOuter1"></feColorMatrix>
            <feMerge>
                <feMergeNode in="shadowMatrixOuter1"></feMergeNode>
                <feMergeNode in="SourceGraphic"></feMergeNode>
            </feMerge>
        </filter>
        <polygon id="path-2" points="0.3019 9 7.74069166 9 7.74069166 0.3073 0.3019 0.3073 0.3019 9"></polygon>
    </defs>
    <g id="Symbols" stroke="none" stroke-width="1" fill="none" fill-rule="evenodd">
        <g id="HEADER_WHITE" transform="translate(-128.000000, -19.000000)">
            <g id="HEADER" filter="url(#filter-1)">
                <g id="Page-1" transform="translate(130.000000, 20.000000)">
                    <path d="M77.6252,15.1689 C80.7492,15.1689 83.1972,17.6149 83.1972,20.7379 C83.1972,23.8619 80.7492,26.3099 77.6252,26.3099 C74.5022,26.3099 72.0562,23.8619 72.0562,20.7379 C72.0562,17.6149 74.5022,15.1689 77.6252,15.1689 M13.4852,15.1689 C16.6092,15.1689 19.0582,17.6149 19.0582,20.7379 C19.0582,23.8619 16.6092,26.3099 13.4852,26.3099 C10.3622,26.3099 7.9162,23.8619 7.9162,20.7379 C7.9162,17.6149 10.3622,15.1689 13.4852,15.1689 M45.6262,7.9159 C52.7552,7.9159 58.4512,13.6089 58.4512,20.7379 C58.4512,27.8679 52.7552,33.5629 45.6262,33.5629 C38.4972,33.5629 32.8042,27.8679 32.8042,20.7379 C32.8042,13.6089 38.4972,7.9159 45.6262,7.9159 M45.6262,-0.0001 C36.1822,-0.0001 28.1772,6.4029 25.6962,15.0769 C23.5402,10.4759 18.8672,7.2529 13.4852,7.2529 C6.0842,7.2529 0.0002,13.3369 0.0002,20.7379 C0.0002,28.1399 6.0842,34.2269 13.4852,34.2269 C18.8672,34.2269 23.5402,31.0009 25.6962,26.3989 C28.1772,35.0749 36.1822,41.4789 45.6262,41.4789 C55.0002,41.4789 62.9642,35.1709 65.5092,26.5939 C67.7052,31.0909 72.3192,34.2269 77.6252,34.2269 C85.0262,34.2269 91.1132,28.1399 91.1132,20.7379 C91.1132,13.3369 85.0262,7.2529 77.6252,7.2529 C72.3192,7.2529 67.7052,10.3859 65.5092,14.8829 C62.9642,6.3059 55.0002,-0.0001 45.6262,-0.0001" id="Fill-1" fill="#0082C9"></path>
                    <path d="M25.5822,54.5465 C25.5072,52.8155 24.4532,51.9495 23.2492,51.9495 C21.8572,51.9495 20.6522,52.8535 20.3892,54.5465 L25.5822,54.5465 Z M23.2872,51.0095 C25.5072,51.0095 26.7492,52.5895 26.7492,54.9605 C26.7492,55.1865 26.5602,55.3745 26.3352,55.3745 L20.3512,55.3745 C20.3892,57.4815 21.8572,58.6855 23.5502,58.6855 C24.6042,58.6855 25.3562,58.2345 25.7332,57.9335 C25.9582,57.7825 26.1462,57.8205 26.2592,58.0465 L26.3722,58.2345 C26.4852,58.4225 26.4482,58.6105 26.2592,58.7615 C25.8082,59.0995 24.8292,59.6645 23.5122,59.6645 C21.0662,59.6645 19.1852,57.8955 19.1852,55.3365 C19.2222,52.6275 21.0292,51.0095 23.2872,51.0095 L23.2872,51.0095 Z" id="Fill-3" fill="#231F20"></path>
                    <path d="M38.0495,52.2134 L38.0495,51.2724 L38.0495,49.3154 C38.0495,49.0524 38.2005,48.9014 38.4635,48.9014 L38.7645,48.9014 C39.0275,48.9014 39.1405,49.0524 39.1405,49.3154 L39.1405,51.2724 L40.8345,51.2724 C41.0975,51.2724 41.2485,51.4234 41.2485,51.6864 L41.2485,51.7994 C41.2485,52.0624 41.0975,52.1754 40.8345,52.1754 L39.1405,52.1754 L39.1405,56.3154 C39.1405,58.2344 40.3075,58.4604 40.9475,58.4974 C41.2855,58.5354 41.3985,58.6104 41.3985,58.9114 L41.3985,59.1374 C41.3985,59.4004 41.2855,59.5134 40.9475,59.5134 C39.1405,59.5134 38.0495,58.4224 38.0495,56.4654 L38.0495,52.2134" id="Fill-5" fill="#231F20"></path>
                    <g id="Group-9" transform="translate(42.000000, 50.701900)">
                        <mask id="mask-3" fill="white">
                            <use xlink:href="#path-2"></use>
                        </mask>
                        <g id="Clip-8"></g>
                        <path d="M4.6669,0.3073 C6.0969,0.3073 6.9999,0.9093 7.4139,1.2483 C7.6019,1.3983 7.6399,1.5863 7.4519,1.8123 L7.3389,2.0003 C7.1879,2.2263 6.9999,2.2263 6.7739,2.0763 C6.3979,1.8123 5.6829,1.3233 4.7049,1.3233 C2.8979,1.3233 1.4679,2.6783 1.4679,4.6723 C1.4679,6.6293 2.8979,7.9843 4.7049,7.9843 C5.8709,7.9843 6.6609,7.4573 7.0379,7.1183 C7.2639,6.9683 7.4139,7.0053 7.5649,7.2313 L7.6769,7.3823 C7.7899,7.6073 7.7529,7.7583 7.5649,7.9463 C7.1509,8.2853 6.1349,9.0003 4.6289,9.0003 C2.1829,9.0003 0.3019,7.2313 0.3019,4.6723 C0.3389,2.1133 2.2209,0.3073 4.6669,0.3073" id="Fill-7" fill="#231F20" mask="url(#mask-3)"></path>
                    </g>
                    <path d="M51.6718,48.3374 C51.6718,48.0744 51.5208,47.9234 51.7848,47.9234 L52.0858,47.9234 C52.3488,47.9234 52.7628,48.0744 52.7628,48.3374 L52.7628,57.3314 C52.7628,58.3844 53.2528,58.4974 53.6288,58.5354 C53.8168,58.5354 53.9668,58.6484 53.9668,58.9114 L53.9668,59.1754 C53.9668,59.4384 53.8548,59.5894 53.5538,59.5894 C52.8758,59.5894 51.6718,59.3634 51.6718,57.5574 L51.6718,48.3374" id="Fill-10" fill="#231F20"></path>
                    <path d="M59.3861,58.6859 C61.1551,58.6859 62.5851,57.2559 62.5851,55.2989 C62.5851,53.4179 61.1551,52.0249 59.3861,52.0249 C57.6171,52.0249 56.1501,53.4549 56.1501,55.2989 C56.1871,57.2179 57.6171,58.6859 59.3861,58.6859 M59.3861,51.0089 C61.7941,51.0089 63.7511,52.8529 63.7511,55.2989 C63.7511,57.7829 61.7941,59.6639 59.3861,59.6639 C56.9781,59.6639 55.0211,57.7829 55.0211,55.2989 C55.0211,52.8529 56.9781,51.0089 59.3861,51.0089" id="Fill-12" fill="#231F20"></path>
                    <path d="M78.2015,58.6859 C79.5935,58.6859 80.8735,57.7079 80.8735,55.3369 C80.8735,53.6429 80.0075,52.0249 78.2395,52.0249 C76.7715,52.0249 75.5675,53.2299 75.5675,55.3369 C75.6045,57.3689 76.6585,58.6859 78.2015,58.6859 L78.2015,58.6859 Z M78.1635,51.0089 C80.1585,51.0089 80.8735,52.6649 80.8735,52.6649 L80.9105,52.6649 C80.9105,52.6649 80.8735,52.4019 80.8735,52.0249 L80.8735,48.2999 C80.8735,48.0359 80.7605,47.8859 81.0235,47.8859 L81.3245,47.8859 C81.5885,47.8859 82.0025,48.0359 82.0025,48.2999 L82.0025,59.0249 C82.0025,59.2879 81.8895,59.4389 81.6255,59.4389 L81.3625,59.4389 C81.0995,59.4389 80.9485,59.3259 80.9485,59.0619 L80.9485,58.4229 C80.9485,58.1219 81.0235,57.8959 81.0235,57.8959 L80.9865,57.8959 C80.9865,57.8959 80.2715,59.6269 78.1265,59.6269 C75.9065,59.6269 74.5135,57.8579 74.5135,55.2989 C74.4385,52.7399 75.9815,51.0089 78.1635,51.0089 L78.1635,51.0089 Z" id="Fill-14" fill="#231F20"></path>
                    <path d="M9.4877,59.4761 L9.7887,59.4761 C10.0517,59.4761 10.2027,59.3251 10.2027,59.0621 L10.2027,50.9821 C10.2027,49.7021 11.5947,48.7891 13.1757,48.7891 C14.7557,48.7891 16.1487,49.7021 16.1487,50.9821 L16.1487,59.0621 C16.1487,59.3251 16.2987,59.4761 16.5627,59.4761 L16.8637,59.4761 C17.1267,59.4761 17.2397,59.3251 17.2397,59.0621 L17.2397,50.9341 C17.2397,48.7891 15.0947,47.7351 13.1377,47.7351 C11.2567,47.7351 9.1117,48.7891 9.1117,50.9341 L9.1117,59.0621 C9.1117,59.3251 9.2247,59.4761 9.4877,59.4761" id="Fill-16" fill="#231F20"></path>
                    <path d="M72.2935,51.1973 L71.9925,51.1973 C71.7295,51.1973 71.5785,51.3483 71.5785,51.6113 L71.5785,56.1643 C71.5785,57.4443 70.7505,58.6103 69.1325,58.6103 C67.5525,58.6103 66.6865,57.4443 66.6865,56.1643 L66.6865,51.6113 C66.6865,51.3483 66.5355,51.1973 66.2725,51.1973 L65.9715,51.1973 C65.7085,51.1973 65.5955,51.3483 65.5955,51.6113 L65.5955,56.4653 C65.5955,58.6103 67.1755,59.6643 69.1325,59.6643 C71.0895,59.6643 72.6695,58.6103 72.6695,56.4653 L72.6695,51.6113 C72.7075,51.3483 72.5565,51.1973 72.2935,51.1973 L72.2935,51.1973 Z" id="Fill-18" fill="#231F20"></path>
                    <path d="M35.0421,51.1356 C34.9501,51.1506 34.8611,51.2116 34.7771,51.3126 L33.2541,53.1286 L32.1141,54.4866 L30.3881,52.4296 L29.4521,51.3126 C29.3671,51.2116 29.2711,51.1566 29.1721,51.1476 C29.0721,51.1396 28.9691,51.1776 28.8681,51.2616 L28.6371,51.4556 C28.4361,51.6246 28.4461,51.8116 28.6151,52.0136 L30.1391,53.8296 L31.4021,55.3346 L29.5521,57.5386 C29.5511,57.5406 29.5501,57.5426 29.5491,57.5436 L28.6151,58.6556 C28.4461,58.8576 28.4651,59.0706 28.6671,59.2396 L28.8981,59.4316 C29.0991,59.6016 29.2821,59.5586 29.4521,59.3566 L30.9751,57.5416 L32.1151,56.1836 L33.8401,58.2406 C33.8411,58.2416 33.8431,58.2426 33.8441,58.2446 L34.7771,59.3566 C34.9471,59.5586 35.1581,59.5766 35.3601,59.4076 L35.5911,59.2146 C35.7931,59.0456 35.7821,58.8576 35.6131,58.6556 L34.0891,56.8406 L32.8261,55.3356 L34.6761,53.1306 C34.6771,53.1296 34.6781,53.1276 34.6801,53.1256 L35.6131,52.0136 C35.7821,51.8126 35.7631,51.5996 35.5621,51.4306 L35.3311,51.2366 C35.2301,51.1526 35.1341,51.1206 35.0421,51.1356 L35.0421,51.1356 Z" id="Fill-20" fill="#231F20"></path>
                </g>
            </g>
        </g>
    </g>
</svg>

<?xml version="1.0" encoding="UTF-8" standalone="no"?>
<svg xmlns="http://www.w3.org/2000/svg" height="64px" width="96px" version="1.1" xmlns:xlink="http://www.w3.org/1999/xlink" viewBox="0 0 96 64">
 <defs>
  <polygon id="d" points="0.3019 9 7.7407 9 7.7407 0.3073 0.3019 0.3073"/>
 </defs>
 <g fill="none" fill-rule="evenodd">
  <g transform="translate(-128 -19)">
   <g filter="url(#c)">
    <g transform="translate(130 20)">
     <path d="m77.625 15.169c3.124 0 5.572 2.446 5.572 5.569 0 3.124-2.448 5.572-5.572 5.572-3.123 0-5.569-2.448-5.569-5.572 0-3.123 2.446-5.569 5.569-5.569m-64.14 0c3.124 0 5.573 2.446 5.573 5.569 0 3.124-2.449 5.572-5.573 5.572-3.123 0-5.5688-2.448-5.5688-5.572 0-3.123 2.4458-5.569 5.5688-5.569m32.141-7.2531c7.129 0 12.825 5.6931 12.825 12.822 0 7.13-5.696 12.825-12.825 12.825s-12.822-5.695-12.822-12.825c0-7.129 5.693-12.822 12.822-12.822m0-7.9161c-9.444 0-17.449 6.403-19.93 15.077-2.156-4.601-6.829-7.8241-12.211-7.8241-7.4008 0-13.485 6.0841-13.485 13.485 0.0002 7.402 6.0842 13.489 13.485 13.489 5.382 0 10.055-3.226 12.211-7.828 2.481 8.676 10.486 15.08 19.93 15.08 9.374 0 17.338-6.308 19.883-14.885 2.196 4.497 6.81 7.633 12.116 7.633 7.401 0 13.488-6.087 13.488-13.489 0-7.401-6.087-13.485-13.488-13.485-5.306-0.0001-9.92 3.133-12.116 7.63-2.545-8.5771-10.509-14.883-19.883-14.883" fill="#0082C9"/>
     <path d="m25.582 54.546c-0.075-1.73-1.129-2.596-2.333-2.596-1.392 0-2.597 0.904-2.86 2.596h5.193zm-2.295-3.536c2.22 0 3.462 1.58 3.462 3.95 0 0.226-0.189 0.414-0.414 0.414h-5.984c0.038 2.108 1.506 3.312 3.199 3.312 1.054 0 1.806-0.452 2.183-0.752 0.225-0.152 0.413-0.114 0.526 0.112l0.113 0.188c0.113 0.188 0.076 0.376-0.113 0.528-0.451 0.338-1.43 0.902-2.747 0.902-2.446 0-4.327-1.768-4.327-4.328 0.037-2.708 1.844-4.326 4.102-4.326z" fill="#231F20"/>
     <path d="m38.05 52.213v-2.898c0-0.263 0.15-0.414 0.414-0.414h0.3c0.264 0 0.376 0.151 0.376 0.414v1.957h1.694c0.264 0 0.414 0.151 0.414 0.414v0.113c0 0.263-0.15 0.376-0.414 0.376h-1.694v4.14c0 1.919 1.168 2.145 1.808 2.182 0.338 0.038 0.45 0.113 0.45 0.414v0.226c0 0.263-0.112 0.376-0.45 0.376-1.808 0-2.898-1.091-2.898-3.048v-4.252" fill="#231F20"/>
     <g transform="translate(42 50.702)">
      <mask id="c" fill="white">
       <use xlink:href="#d"/>
      </mask>
      <path mask="url(#c)" d="m4.6669 0.3073c1.43 0 2.333 0.602 2.747 0.941 0.188 0.15 0.226 0.338 0.038 0.564l-0.113 0.188c-0.151 0.226-0.339 0.226-0.565 0.076-0.376-0.264-1.091-0.753-2.069-0.753-1.807 0-3.237 1.355-3.237 3.349 0 1.957 1.43 3.312 3.237 3.312 1.166 0 1.956-0.527 2.333-0.866 0.226-0.15 0.376-0.113 0.527 0.113l0.112 0.151c0.113 0.225 0.076 0.376-0.112 0.564-0.414 0.339-1.43 1.054-2.936 1.054-2.446 0-4.327-1.769-4.327-4.328 0.037-2.559 1.919-4.365 4.365-4.365" fill="#231F20"/>
     </g>
     <g fill="#231F20">
      <path d="m51.672 48.337c0-0.263-0.151-0.414 0.113-0.414h0.301c0.263 0 0.677 0.151 0.677 0.414v8.994c0 1.053 0.49 1.166 0.866 1.204 0.188 0 0.338 0.113 0.338 0.376v0.264c0 0.263-0.112 0.414-0.413 0.414-0.678 0-1.882-0.226-1.882-2.032v-9.22"/>
      <path d="m59.386 58.686c1.769 0 3.199-1.43 3.199-3.387 0-1.881-1.43-3.274-3.199-3.274s-3.236 1.43-3.236 3.274c0.037 1.919 1.467 3.387 3.236 3.387m0-7.677c2.408 0 4.365 1.844 4.365 4.29 0 2.484-1.957 4.365-4.365 4.365s-4.365-1.881-4.365-4.365c0-2.446 1.957-4.29 4.365-4.29"/>
      <path d="m78.202 58.686c1.392 0 2.672-0.978 2.672-3.349 0-1.694-0.866-3.312-2.634-3.312-1.468 0-2.672 1.205-2.672 3.312 0.036 2.032 1.09 3.349 2.634 3.349zm-0.038-7.677c1.994 0 2.71 1.656 2.71 1.656h0.036s-0.036-0.263-0.036-0.64v-3.725c0-0.264-0.114-0.414 0.15-0.414h0.3c0.264 0 0.678 0.15 0.678 0.414v10.725c0 0.263-0.112 0.414-0.376 0.414h-0.264c-0.262 0-0.414-0.113-0.414-0.377v-0.639c0-0.301 0.076-0.527 0.076-0.527h-0.038s-0.714 1.731-2.86 1.731c-2.22 0-3.612-1.769-3.612-4.328-0.076-2.559 1.468-4.29 3.65-4.29z"/>
      <path d="m9.4877 59.476h0.301c0.2633 0 0.4143-0.151 0.4143-0.414v-8.08c0-1.28 1.392-2.193 2.973-2.193 1.58 0 2.973 0.913 2.973 2.193v8.08c0 0.263 0.15 0.414 0.414 0.414h0.301c0.263 0 0.376-0.151 0.376-0.414v-8.128c0-2.145-2.145-3.199-4.102-3.199-1.881 0-4.0263 1.054-4.0263 3.199v8.128c0 0.263 0.113 0.414 0.376 0.414"/>
      <path d="m72.294 51.197h-0.302c-0.262 0-0.414 0.151-0.414 0.414v4.553c0 1.28-0.828 2.446-2.446 2.446-1.58 0-2.446-1.166-2.446-2.446v-4.553c0-0.263-0.15-0.414-0.414-0.414h-0.3c-0.264 0-0.376 0.151-0.376 0.414v4.854c0 2.145 1.58 3.199 3.536 3.199 1.958 0 3.538-1.054 3.538-3.199v-4.854c0.038-0.263-0.114-0.414-0.376-0.414z"/>
      <path d="m35.042 51.136c-0.092 0.015-0.181 0.076-0.265 0.177l-1.523 1.816-1.14 1.358-1.726-2.057-0.936-1.117c-0.085-0.101-0.181-0.156-0.28-0.165-0.1-0.008-0.203 0.03-0.304 0.114l-0.231 0.194c-0.201 0.169-0.191 0.356-0.022 0.558l1.524 1.816 1.263 1.505-1.85 2.204c-0.001 0.002-0.002 0.004-0.003 0.005l-0.934 1.112c-0.169 0.202-0.15 0.415 0.052 0.584l0.231 0.192c0.201 0.17 0.384 0.127 0.554-0.075l1.523-1.815 1.14-1.358 1.725 2.057c0.001 0.001 0.003 0.002 0.004 0.004l0.933 1.112c0.17 0.202 0.381 0.22 0.583 0.051l0.231-0.193c0.202-0.169 0.191-0.357 0.022-0.559l-1.524-1.815-1.263-1.505 1.85-2.205c0.001-0.001 0.002-0.003 0.004-0.005l0.933-1.112c0.169-0.201 0.15-0.414-0.051-0.583l-0.231-0.194c-0.101-0.084-0.197-0.116-0.289-0.101z"/>
     </g>
    </g>
   </g>
  </g>
 </g>
</svg>
